public/icons/spaceship_icon.svg

<svg width="129" height="129" viewBox="0 0 129 129" fill="none" xmlns="http://www.w3.org/2000/svg">
<g clip-path="url(#clip0_378_9926)">
<path d="M110.346 115.521C110.326 115.345 108.265 97.8625 107.561 92.0663C107.212 89.2034 105.127 85.8395 102.709 84.2415L84.4372 72.1619V37.2474C84.4372 29.9498 82.671 22.6915 79.3299 16.2566C76.0986 10.0333 71.3909 4.54945 65.7157 0.397293C64.9917 -0.132431 64.0085 -0.132431 63.2848 0.397293C57.6099 4.54945 52.9019 10.0333 49.6706 16.2566C46.3292 22.6912 44.5633 29.9498 44.5633 37.2474V72.1619L26.2914 84.2415C23.8739 85.8395 21.7882 89.2034 21.4399 92.0663C20.7348 97.8625 18.6749 115.345 18.6543 115.521C18.5854 116.105 18.7696 116.69 19.1602 117.129C19.5507 117.569 20.1107 117.82 20.6986 117.82H48.8258V126.942C48.8258 128.079 49.7474 129 50.8843 129H60.3831C61.5199 129 62.4416 128.079 62.4416 126.942V123.996C62.4416 122.859 61.5199 121.937 60.3831 121.937C59.2462 121.937 58.3246 122.859 58.3246 123.996V124.883H52.9425V117.82H76.0577V124.883H70.6756V123.996C70.6756 122.859 69.754 121.937 68.6171 121.937C67.4803 121.937 66.5586 122.859 66.5586 123.996V126.942C66.5586 128.079 67.4803 129 68.6171 129H78.1162C79.2531 129 80.1747 128.079 80.1747 126.942V117.82H108.302C108.89 117.82 109.45 117.569 109.84 117.129C110.231 116.69 110.415 116.105 110.346 115.521ZM48.68 109.586H80.3199V113.703H48.68V109.586ZM84.4372 113.703V95.3363C84.4372 94.1992 83.5155 93.2778 82.3787 93.2778C81.2418 93.2778 80.3202 94.1992 80.3202 95.3363V105.469H48.68V95.3363C48.68 94.1992 47.7584 93.2778 46.6215 93.2778C45.4847 93.2778 44.563 94.1992 44.563 95.3363V113.703H23.014C23.6002 108.734 24.9767 97.0847 25.5267 92.5634C25.7263 90.9234 27.1727 88.5943 28.5615 87.6762L44.563 77.0977V87.1023C44.563 88.2394 45.4847 89.1608 46.6215 89.1608C47.7584 89.1608 48.68 88.2394 48.68 87.1023V37.2474C48.68 24.567 54.5663 12.4928 64.5001 4.64441C74.4339 12.4928 80.3202 24.567 80.3202 37.2474V87.1023C80.3202 88.2394 81.2418 89.1608 82.3787 89.1608C83.5155 89.1608 84.4372 88.2394 84.4372 87.1023V77.0977L100.439 87.6762C101.828 88.5943 103.274 90.9234 103.474 92.5634C104.024 97.085 105.401 108.735 105.987 113.703H84.4372Z" fill="#A5A4B1"/>
<path d="M72.7987 25.582H56.2016C55.2816 25.582 54.4733 26.1924 54.2216 27.0773C53.2766 30.4 52.7974 33.8216 52.7974 37.2469C52.7974 38.384 53.719 39.3054 54.8559 39.3054H74.1447C75.2815 39.3054 76.2032 38.384 76.2032 37.2469C76.2032 33.8216 75.724 30.4 74.7787 27.0773C74.527 26.1924 73.7187 25.582 72.7987 25.582ZM56.9792 35.1884C57.0955 33.3445 57.3678 31.5086 57.7932 29.6991H71.207C71.6325 31.5086 71.9047 33.3445 72.0211 35.1884H56.9792Z" fill="#A5A4B1"/>
</g>
<defs>
<clipPath id="clip0_378_9926">
<rect width="129" height="129" fill="white"/>
</clipPath>
</defs>
</svg>

<svg width="129" height="129" fill="none" xmlns="http://www.w3.org/2000/svg"><g clip-path="url(#a)" fill="#A5A4B1"><path d="M110.346 115.521c-.02-.176-2.081-17.659-2.785-23.455-.349-2.863-2.434-6.227-4.852-7.825l-18.272-12.08V37.248c0-7.297-1.766-14.555-5.107-20.99A46.059 46.059 0 0 0 65.716.397a2.058 2.058 0 0 0-2.431 0 46.062 46.062 0 0 0-13.614 15.86c-3.342 6.434-5.108 13.693-5.108 20.99v34.915l-18.272 12.08c-2.417 1.597-4.503 4.961-4.851 7.824a10649.49 10649.49 0 0 0-2.786 23.455 2.056 2.056 0 0 0 2.045 2.299h28.127v9.122c0 1.137.921 2.058 2.058 2.058h9.5a2.058 2.058 0 0 0 2.058-2.058v-2.946a2.059 2.059 0 1 0-4.117 0v.887h-5.383v-7.063h23.116v7.063h-5.382v-.887a2.059 2.059 0 1 0-4.117 0v2.946c0 1.137.921 2.058 2.058 2.058h9.5a2.058 2.058 0 0 0 2.058-2.058v-9.122h28.127c.588 0 1.148-.251 1.538-.691a2.054 2.054 0 0 0 .506-1.608Zm-61.666-5.935h31.64v4.117H48.68v-4.117Zm35.757 4.117V95.336a2.058 2.058 0 1 0-4.117 0v10.133H48.68V95.336a2.058 2.058 0 1 0-4.117 0v18.367H23.014c.586-4.969 1.963-16.618 2.513-21.14.2-1.64 1.646-3.969 3.034-4.887l16.002-10.578v10.004a2.058 2.058 0 1 0 4.117 0V37.247c0-12.68 5.886-24.754 15.82-32.603 9.934 7.849 15.82 19.923 15.82 32.603v49.855a2.058 2.058 0 1 0 4.117 0V77.098l16.002 10.578c1.389.918 2.835 3.247 3.035 4.887.55 4.522 1.927 16.172 2.513 21.14h-21.55Z"/><path d="M72.799 25.582H56.202c-.92 0-1.729.61-1.98 1.495a37.174 37.174 0 0 0-1.425 10.17c0 1.137.922 2.058 2.059 2.058h19.289a2.058 2.058 0 0 0 2.058-2.058 37.18 37.18 0 0 0-1.424-10.17 2.058 2.058 0 0 0-1.98-1.495Zm-15.82 9.606c.117-1.844.389-3.68.814-5.489h13.414c.425 1.81.698 3.645.814 5.49H56.98Z"/></g><defs><clipPath id="a"><path fill="#fff" d="M0 0h129v129H0z"/></clipPath></defs></svg>
